deployments/warp_routes/TAIKO/logo.svg

<svg xmlns="http://www.w3.org/2000/svg" width="512" height="512" fill="none" viewBox="0 0 512 512"><g clip-path="url(#a)"><circle cx="256" cy="256" r="256" fill="#E81899"/><path fill="#FAFAFA" d="m401.612 322.08-52.092-69.363c-5.659-7.538-14.039-12.053-22.963-13.048-2.031-.231-3.845-1.387-4.861-3.129a6.22 6.22 0 0 1-.326-5.706c3.573-8.07 3.79-17.439-.055-26.007l-35.242-78.891c-5.224-11.714-17.032-19.269-30.073-19.269s-24.849 7.572-30.073 19.269l-35.242 78.891c-3.827 8.568-3.628 17.937-.055 26.007a6.27 6.27 0 0 1-.326 5.706 6.5 6.5 0 0 1-4.861 3.129c-8.924.995-17.304 5.51-22.963 13.048l-52.092 69.363c-7.727 10.292-8.507 24.086-1.996 35.161 6.53 11.057 19.118 17.296 32.069 15.892l87.334-9.528c9.486-1.031 17.667-5.884 22.999-12.959a6.52 6.52 0 0 1 5.206-2.578c2.05 0 3.972.96 5.206 2.578 5.332 7.075 13.512 11.928 22.999 12.959l87.334 9.528c12.951 1.422 25.539-4.817 32.069-15.892 6.511-11.075 5.731-24.869-1.996-35.161M213.466 214.729l35.297-78.98c1.27-2.827 4.117-4.658 7.255-4.658s5.986 1.831 7.255 4.658l35.297 78.98a7.93 7.93 0 0 1-.653 7.643c-1.524 2.276-4.099 3.645-6.892 3.645h-70.031c-2.776 0-5.369-1.369-6.893-3.645a7.93 7.93 0 0 1-.653-7.643zm18.12 120.238c-1.251 2.436-3.682 4.071-6.439 4.373l-87.425 9.528c-3.12.338-6.167-1.155-7.745-3.821s-1.379-5.991.489-8.48l52.147-69.434a8.27 8.27 0 0 1 7.074-3.271 8.23 8.23 0 0 1 6.675 4.018l.054.089 34.916 59.266.055.089a7.89 7.89 0 0 1 .217 7.661zm31.597-26.806a8.35 8.35 0 0 1-7.183 4.071c-2.956 0-5.695-1.547-7.183-4.053l-26.826-45.526a7.95 7.95 0 0 1 0-8.123 8.34 8.34 0 0 1 7.183-4.071h53.634c2.957 0 5.695 1.529 7.183 4.053a7.96 7.96 0 0 1 0 8.124zm118.858 36.886c-1.578 2.666-4.607 4.177-7.745 3.839l-87.425-9.528c-2.757-.302-5.187-1.938-6.439-4.373s-1.179-5.315.218-7.661l.054-.089 34.916-59.266.054-.089a8.23 8.23 0 0 1 6.675-4.018c2.775-.142 5.423 1.085 7.074 3.271l52.147 69.434a7.65 7.65 0 0 1 .489 8.48z"/></g><defs><clipPath id="a"><path fill="#fff" d="M0 0h512v512H0z"/></clipPath></defs></svg>

<svg width="512" height="512" viewBox="0 0 512 512" fill="none" xmlns="http://www.w3.org/2000/svg">
<g clip-path="url(#clip0_132_10)">
<circle cx="256" cy="256" r="256" fill="#E81899"/>
<path d="M401.612 322.08L349.52 252.717C343.861 245.179 335.481 240.664 326.557 239.669C324.526 239.438 322.712 238.282 321.696 236.54C320.662 234.798 320.553 232.683 321.37 230.834C324.943 222.764 325.16 213.395 321.315 204.827L286.073 125.936C280.849 114.222 269.041 106.667 256 106.667C242.959 106.667 231.151 114.239 225.927 125.936L190.685 204.827C186.858 213.395 187.057 222.764 190.63 230.834C191.447 232.683 191.32 234.798 190.304 236.54C189.27 238.282 187.474 239.438 185.443 239.669C176.519 240.664 168.139 245.179 162.48 252.717L110.388 322.08C102.661 332.372 101.881 346.166 108.392 357.241C114.922 368.298 127.51 374.537 140.461 373.133L227.795 363.605C237.281 362.574 245.462 357.721 250.794 350.646C252.01 349.028 253.95 348.068 256 348.068C258.05 348.068 259.972 349.028 261.206 350.646C266.538 357.721 274.718 362.574 284.205 363.605L371.539 373.133C384.49 374.555 397.078 368.316 403.608 357.241C410.119 346.166 409.339 332.372 401.612 322.08ZM213.466 214.729L248.763 135.749C250.033 132.922 252.88 131.091 256.018 131.091C259.156 131.091 262.004 132.922 263.273 135.749L298.57 214.729C299.676 217.217 299.441 220.097 297.917 222.372C296.393 224.648 293.818 226.017 291.025 226.017H220.994C218.218 226.017 215.625 224.648 214.101 222.372C212.577 220.097 212.342 217.217 213.448 214.729H213.466ZM231.586 334.967C230.335 337.403 227.904 339.038 225.147 339.34L137.722 348.868C134.602 349.206 131.555 347.713 129.977 345.047C128.399 342.38 128.598 339.056 130.466 336.567L182.613 267.133C184.264 264.947 186.912 263.702 189.687 263.862C192.462 264.005 194.965 265.515 196.362 267.88L196.416 267.969L231.332 327.235L231.387 327.324C232.783 329.688 232.856 332.568 231.604 334.985L231.586 334.967ZM263.183 308.161C261.695 310.667 258.975 312.232 256 312.232C253.044 312.232 250.305 310.685 248.817 308.179L221.991 262.653C220.504 260.147 220.504 257.036 221.991 254.53C223.478 252.023 226.199 250.459 229.174 250.459H282.808C285.765 250.459 288.503 251.988 289.991 254.512C291.478 257.036 291.478 260.129 289.991 262.636L263.183 308.161ZM382.041 345.047C380.463 347.713 377.434 349.224 374.296 348.886L286.871 339.358C284.114 339.056 281.684 337.42 280.432 334.985C279.18 332.55 279.253 329.67 280.65 327.324L280.704 327.235L315.62 267.969L315.674 267.88C317.071 265.515 319.574 264.005 322.349 263.862C325.124 263.72 327.772 264.947 329.423 267.133L381.57 336.567C383.438 339.056 383.619 342.38 382.059 345.047H382.041Z" fill="#FAFAFA"/>
</g>
<defs>
<clipPath id="clip0_132_10">
<rect width="512" height="512" fill="white"/>
</clipPath>
</defs>
</svg>
